packages/icons/raw/imported/FilesFolderOpenAlternative.svg

<svg width="32" height="32" viewBox="0 0 32 32" fill="none" xmlns="http://www.w3.org/2000/svg">
<path d="M21 9.99991V10.4999V9.99991ZM15.9 9.99991L15.4713 10.2572L15.6169 10.4999H15.9V9.99991ZM14 6.83325L14.4288 6.576L14.2831 6.33325H14V6.83325ZM10.0333 6.83325V6.33325V6.83325ZM24 12.9997H23.5H24ZM7.03334 9.83325H6.53334H7.03334ZM8.07141 17.5968L7.58167 17.496L8.07141 17.5968ZM6.99452 22.8302L7.48426 22.9309L7.48426 22.9309L6.99452 22.8302ZM21.9697 25.2333V25.7333H21.9697L21.9697 25.2333ZM8.95347 25.2333V25.7333H8.95347L8.95347 25.2333ZM25.0055 18.403L24.5158 18.3023L25.0055 18.403ZM23.9286 23.6364L24.4184 23.7371L23.9286 23.6364ZM23.0466 15.9999V15.4999V15.9999ZM10.0304 15.9999L10.0304 16.4999L10.0304 15.9999ZM21 9.49991H15.9V10.4999H21V9.49991ZM16.3288 9.74267L14.4288 6.576L13.5713 7.0905L15.4713 10.2572L16.3288 9.74267ZM14 6.33325L10.0333 6.33325V7.33325L14 7.33325V6.33325ZM23.5 12.9997V15.9999H24.5V12.9997H23.5ZM21 10.4999C22.3808 10.4999 23.5 11.619 23.5 12.9997H24.5C24.5 11.0666 22.933 9.49991 21 9.49991V10.4999ZM10.0333 6.33325C8.10034 6.33325 6.53334 7.90026 6.53334 9.83325H7.53334C7.53334 8.45254 8.65263 7.33325 10.0333 7.33325V6.33325ZM7.58167 17.496L6.50478 22.7294L7.48426 22.9309L8.56115 17.6976L7.58167 17.496ZM21.9697 24.7333L8.95347 24.7333L8.95347 25.7333L21.9697 25.7333V24.7333ZM24.5158 18.3023L23.4389 23.5356L24.4184 23.7371L25.4953 18.5038L24.5158 18.3023ZM23.0466 15.4999L10.0304 15.4999L10.0304 16.4999L23.0466 16.4999V15.4999ZM25.4953 18.5038C25.8144 16.953 24.6298 15.4999 23.0466 15.4999V16.4999C23.9965 16.4999 24.7072 17.3718 24.5158 18.3023L25.4953 18.5038ZM8.56115 17.6976C8.70464 17.0003 9.31847 16.4999 10.0304 16.4999L10.0304 15.4999C8.84388 15.4999 7.82081 16.3339 7.58167 17.496L8.56115 17.6976ZM6.50478 22.7294C6.18566 24.2802 7.37019 25.7333 8.95347 25.7333V24.7333C8.00351 24.7333 7.29279 23.8614 7.48426 22.9309L6.50478 22.7294ZM21.9697 25.7333C23.1562 25.7333 24.1792 24.8993 24.4184 23.7371L23.4389 23.5356C23.2954 24.2329 22.6816 24.7333 21.9697 24.7333L21.9697 25.7333ZM6.53334 9.83325L6.53334 22.4999H7.53334L7.53334 9.83325H6.53334Z" fill="black"/>
</svg>

<svg width="32" height="32" fill="none" xmlns="http://www.w3.org/2000/svg"><path d="M21 10v.5-.5Zm-5.1 0-.429.257.146.243h.283V10ZM14 6.833l.429-.257-.146-.243H14v.5Zm-3.967 0v-.5.5ZM24 13h-.5.5ZM7.033 9.833h-.5.5Zm1.038 7.764-.49-.101.49.1ZM6.995 22.83l.49.1-.49-.1Zm14.975 2.403v.5-.5Zm-13.017 0v.5-.5Zm16.053-6.83-.49-.1.49.1Zm-1.077 5.233.49.101-.49-.1ZM23.047 16v-.5.5ZM10.03 16v.5-.5ZM21 9.5h-5.1v1H21v-1Zm-4.671.243-1.9-3.167-.858.514 1.9 3.167.858-.514ZM14 6.333h-3.967v1H14v-1ZM23.5 13v3h1v-3h-1ZM21 10.5a2.5 2.5 0 0 1 2.5 2.5h1A3.5 3.5 0 0 0 21 9.5v1ZM10.033 6.333a3.5 3.5 0 0 0-3.5 3.5h1a2.5 2.5 0 0 1 2.5-2.5v-1ZM7.582 17.496l-1.077 5.233.98.202 1.076-5.233-.98-.202Zm14.388 7.237H8.953v1H21.97v-1Zm2.546-6.43-1.077 5.233.98.201 1.076-5.233-.98-.202Zm-1.47-2.803H10.03v1h13.017v-1Zm2.45 3.004a2.5 2.5 0 0 0-2.45-3.004v1a1.5 1.5 0 0 1 1.47 1.802l.98.202ZM8.56 17.698a1.5 1.5 0 0 1 1.47-1.198v-1a2.5 2.5 0 0 0-2.45 1.996l.98.202Zm-2.056 5.031a2.5 2.5 0 0 0 2.448 3.004v-1a1.5 1.5 0 0 1-1.469-1.802l-.98-.202Zm15.465 3.004a2.5 2.5 0 0 0 2.448-1.996l-.98-.201a1.5 1.5 0 0 1-1.468 1.197v1ZM6.533 9.833V22.5h1V9.833h-1Z" fill="#000"/></svg>
